static/images/css-lovers-text.svg

<svg xmlns="http://www.w3.org/2000/svg" width="425" height="376" fill="none" viewBox="0 0 425 376"><g clip-path="url(#clip0)"><path fill="#204282" d="M126.818 61.35C119.018 40.9501 104.718 30.65 83.318 30.65C69.018 30.65 56.918 35.6501 47.418 45.9501C38.118 56.25 33.318 71.05 33.318 90.4501C33.318 109.75 38.118 124.65 47.418 134.95C56.918 145.25 69.018 150.25 83.318 150.25C104.718 150.25 119.018 139.95 126.818 119.55L156.218 127.05C147.918 160.95 121.518 180.35 83.318 180.35C59.918 180.35 40.318 172.35 24.318 156.45C8.21802 140.75 0.218018 118.65 0.218018 90.4501C0.218018 62.25 8.21802 40.15 24.318 24.35C40.418 8.55005 60.018 0.550049 83.418 0.550049C121.618 0.550049 148.018 19.85 156.318 53.85L126.818 61.35Z"/><path fill="#204282" d="M255.718 49.25C249.418 36.9501 241.118 30.65 231.318 30.65C221.518 30.65 214.518 37.4501 214.518 46.75C214.518 57.8501 226.618 66.05 240.918 72.8501C262.018 82.1501 289.918 95.25 289.618 125.65C289.618 159.85 267.518 180.45 233.318 180.45C218.018 180.45 204.718 175.65 193.618 166.35C182.518 156.85 175.518 144.95 172.718 131.15L199.118 114.55C205.918 138.45 217.418 150.25 234.018 150.25C249.318 150.25 256.918 142.75 256.918 127.35C256.918 117.05 245.618 109.05 230.818 102.75C209.918 93.95 182.818 80.6501 183.318 48.25C183.318 34.9501 187.818 23.65 196.918 14.35C206.218 5.05005 217.518 0.550049 231.318 0.550049C255.218 0.550049 272.018 11.15 282.118 32.45L255.718 49.25Z"/><path fill="#204282" d="M390.618 49.25C384.318 36.9501 376.018 30.65 366.218 30.65C356.418 30.65 349.418 37.4501 349.418 46.75C349.418 57.8501 361.518 66.05 375.818 72.8501C396.918 82.1501 424.818 95.25 424.518 125.65C424.518 159.85 402.418 180.45 368.218 180.45C352.918 180.45 339.618 175.65 328.518 166.35C317.418 156.85 310.418 144.95 307.618 131.15L334.018 114.55C340.818 138.45 352.318 150.25 368.918 150.25C384.218 150.25 391.818 142.75 391.818 127.35C391.818 117.05 380.518 109.05 365.718 102.75C344.818 93.95 317.718 80.6501 318.218 48.25C318.218 34.9501 322.718 23.65 331.818 14.35C341.118 5.05005 352.418 0.550049 366.218 0.550049C390.118 0.550049 406.918 11.15 417.018 32.45L390.618 49.25Z"/><path fill="#204282" d="M55.718 359.25C52.818 369.35 45.018 375.45 34.418 375.45C27.518 375.45 21.718 372.95 16.718 367.95C11.918 362.95 9.41803 355.85 9.41803 346.55C9.41803 337.05 12.418 329.25 17.218 324.75C21.918 320.15 28.018 317.65 34.418 317.65C45.118 317.65 52.918 323.75 55.718 333.85L50.518 335.45C48.318 327.25 42.818 322.75 34.418 322.75C28.618 322.75 23.918 324.85 20.418 329.05C16.818 333.25 15.118 339.15 15.118 346.65C15.118 354.15 16.918 360.05 20.418 364.25C23.918 368.45 28.718 370.55 34.418 370.55C42.818 370.55 48.318 365.95 50.518 357.85L55.718 359.25Z"/><path fill="#204282" d="M63.518 354.45C63.518 348.95 65.318 343.95 68.718 339.75C72.218 335.55 76.818 333.45 82.518 333.45C88.218 333.45 92.918 335.55 96.318 339.75C99.818 343.95 101.518 348.95 101.518 354.45C101.518 359.95 99.718 364.95 96.318 369.15C92.918 373.35 88.218 375.45 82.518 375.45C76.818 375.45 72.118 373.35 68.718 369.15C65.318 364.95 63.518 360.05 63.518 354.45ZM68.818 354.45C68.818 358.85 70.018 362.75 72.518 365.95C75.018 369.25 78.418 370.75 82.718 370.75C86.918 370.75 90.418 369.15 92.818 365.95C95.318 362.65 96.618 358.95 96.618 354.45C96.618 350.05 95.418 346.15 92.818 342.95C90.318 339.65 87.018 338.15 82.718 338.15C78.518 338.15 75.018 339.75 72.518 342.95C70.018 346.25 68.818 349.95 68.818 354.45Z"/><path fill="#204282" d="M144.818 374.85H139.818V347.55C139.818 341.35 137.018 338.15 131.518 338.15C127.718 338.15 124.618 339.85 122.018 343.25C119.518 346.75 118.218 351.25 118.218 356.85V374.75H113.318V333.95H118.318V342.45C121.218 336.95 126.518 333.25 132.318 333.25C140.118 333.25 144.818 338.15 144.818 346.65V374.85Z"/><path fill="#204282" d="M153.618 338.85V334.25H160.018V331.55C160.018 322.25 164.218 317.65 172.618 317.65C174.618 317.65 176.218 317.95 177.418 318.75L176.318 323.35C174.918 322.65 173.418 322.35 172.118 322.35C167.418 322.35 164.918 325.25 164.918 330.75V334.15H174.818V338.75H164.918V374.75H159.918V338.75L153.618 338.85Z"/><path fill="#204282" d="M216.818 354.45H186.118C186.118 364.15 190.918 370.75 198.918 370.75C205.018 370.75 208.518 368.25 211.418 362.05L215.818 364.25C211.718 372.35 206.618 375.55 198.818 375.55C193.418 375.55 189.018 373.55 185.718 369.65C182.318 365.75 180.718 360.55 180.718 354.55C180.718 348.55 182.418 343.45 185.718 339.55C189.118 335.65 193.418 333.55 198.818 333.55C204.018 333.55 208.418 335.25 211.618 338.65C215.018 342.15 216.618 346.65 216.618 352.25V354.45H216.818ZM186.418 349.75H211.618C210.618 342.55 206.118 338.05 198.918 338.05C192.418 338.15 187.818 342.85 186.418 349.75Z"/><path fill="#204282" d="M250.018 339.65C248.218 338.65 246.218 338.15 244.318 338.15C237.818 338.15 233.018 345.75 233.018 359.05V374.85H228.018V334.05H233.018V341.35C235.518 336.15 239.518 333.45 244.918 333.45C246.818 333.45 248.818 333.95 251.018 334.85L250.018 339.65Z"/><path fill="#204282" d="M292.218 354.45H261.518C261.518 364.15 266.318 370.75 274.318 370.75C280.418 370.75 283.918 368.25 286.818 362.05L291.218 364.25C287.118 372.35 282.018 375.55 274.218 375.55C268.818 375.55 264.418 373.55 261.118 369.65C257.718 365.75 256.118 360.55 256.118 354.55C256.118 348.55 257.818 343.45 261.118 339.55C264.418 335.65 268.818 333.55 274.218 333.55C279.418 333.55 283.818 335.25 287.018 338.65C290.418 342.15 292.018 346.65 292.018 352.25V354.45H292.218ZM261.818 349.75H287.018C286.018 342.55 281.518 338.05 274.318 338.05C267.818 338.15 263.118 342.85 261.818 349.75Z"/><path fill="#204282" d="M334.818 374.85H329.818V347.55C329.818 341.35 327.018 338.15 321.518 338.15C317.718 338.15 314.618 339.85 312.018 343.25C309.518 346.75 308.218 351.25 308.218 356.85V374.75H303.218V333.95H308.218V342.45C311.118 336.95 316.418 333.25 322.218 333.25C330.018 333.25 334.718 338.15 334.718 346.65L334.818 374.85Z"/><path fill="#204282" d="M380.418 364.15C377.518 371.65 372.118 375.45 364.018 375.45C358.418 375.45 353.918 373.45 350.818 369.35C347.618 365.25 346.118 360.15 346.118 354.45C346.118 348.75 347.718 343.75 350.818 339.65C354.018 335.55 358.418 333.45 364.018 333.45C372.118 333.45 377.618 337.25 380.418 344.75L375.918 346.55C373.618 341.05 369.718 338.25 364.118 338.25C360.018 338.25 356.718 339.85 354.518 342.85C352.318 345.95 351.218 349.75 351.218 354.55C351.218 359.25 352.318 363.15 354.518 366.35C356.718 369.45 359.918 370.95 364.118 370.95C369.718 370.95 373.718 368.15 375.918 362.65L380.418 364.15Z"/><path fill="#204282" d="M424.218 354.45H393.518C393.518 364.15 398.318 370.75 406.318 370.75C412.418 370.75 415.918 368.25 418.818 362.05L423.218 364.25C419.118 372.35 414.018 375.55 406.218 375.55C400.818 375.55 396.418 373.55 393.118 369.65C389.718 365.75 388.118 360.55 388.118 354.55C388.118 348.55 389.818 343.45 393.118 339.55C396.518 335.65 400.818 333.55 406.218 333.55C411.418 333.55 415.818 335.25 419.018 338.65C422.418 342.15 424.018 346.65 424.018 352.25V354.45H424.218ZM393.818 349.75H419.018C418.018 342.55 413.518 338.05 406.318 338.05C399.818 338.15 395.218 342.85 393.818 349.75Z"/><path fill="#204282" d="M14.118 189.35H30.418V277.55H75.118V292.95H14.118V189.35Z"/><path fill="#204282" d="M84.3181 255.65C84.3181 244.85 87.6181 235.65 94.2181 228.25C100.918 220.85 109.918 217.15 121.018 217.15C132.118 217.15 141.018 220.85 147.718 228.25C154.418 235.65 157.818 244.85 157.818 255.65C157.818 266.45 154.418 275.65 147.718 283.05C141.018 290.45 132.218 294.15 121.018 294.15C109.918 294.15 100.918 290.45 94.2181 283.05C87.6181 275.65 84.3181 266.45 84.3181 255.65ZM100.618 255.65C100.618 262.45 102.418 268.35 105.918 273.25C109.618 278.15 114.618 280.55 121.018 280.55C127.418 280.55 132.418 278.15 136.018 273.25C139.718 268.35 141.518 262.45 141.518 255.65C141.518 248.85 139.718 243.05 136.018 238.15C132.418 233.25 127.418 230.75 121.018 230.75C114.618 230.75 109.618 233.25 105.918 238.15C102.418 243.05 100.618 248.85 100.618 255.65Z"/><path fill="#204282" d="M164.618 218.35H180.318L196.618 271.95L212.918 218.35H228.618L203.918 292.95H189.418L164.618 218.35Z"/><path fill="#204282" d="M303.518 259.95H250.618C250.618 271.65 257.418 280.55 269.118 280.55C277.418 280.55 284.918 275.85 288.618 267.95L301.818 273.15C294.218 287.85 285.518 294.15 269.118 294.15C244.518 294.15 234.318 273.45 234.318 255.65C234.318 237.85 244.518 217.15 269.118 217.15C292.918 217.15 303.518 236.55 303.518 253.25V259.95ZM250.918 247.05H287.218C285.918 237.75 279.618 230.75 269.118 230.75C259.218 230.85 252.718 237.45 250.918 247.05Z"/><path fill="#204282" d="M334.718 293.05H319.318V218.45H334.718V230.85C339.618 222.15 348.518 217.25 356.818 217.25C360.218 217.25 363.318 217.85 366.318 219.05L363.618 233.15C361.218 231.65 358.318 230.95 354.918 230.95C349.418 230.95 344.718 233.95 340.718 239.95C336.718 245.85 334.818 254.35 334.818 265.45V293.05H334.718Z"/><path fill="#204282" d="M420.218 229.05L410.418 237.65C406.818 233.05 402.618 230.85 397.418 230.85C393.318 230.85 390.018 233.55 390.018 238.25C390.018 239.85 390.618 241.55 391.918 242.85C394.418 245.35 396.918 246.55 403.318 248.95C408.518 250.85 410.718 251.65 414.918 254.45C420.818 258.05 423.618 262.45 424.218 270.55C424.218 277.25 421.818 282.85 417.118 287.45C412.418 292.05 406.118 294.25 398.318 294.25C384.118 294.25 374.018 285.05 369.418 274.25L382.418 267.15C386.418 276.15 391.918 280.65 398.818 280.65C405.518 280.65 408.918 277.35 408.918 270.85C408.918 268.35 407.918 266.55 405.018 264.95C403.718 264.05 402.318 263.35 401.118 262.85C398.918 261.85 393.418 259.85 391.018 258.85C380.318 254.45 375.018 247.55 375.018 238.45C375.018 232.55 377.218 227.45 381.518 223.45C385.818 219.35 391.318 217.25 397.918 217.25C407.218 217.15 415.418 221.75 420.218 229.05Z"/></g><defs><clipPath id="clip0"><rect width="424.3" height="374.9" fill="#fff" transform="translate(0.218018 0.550049)"/></clipPath></defs></svg>

<svg xmlns="http://www.w3.org/2000/svg" fill="none" viewBox="0 0 425 376"><g clip-path="url(#a)" fill="#204282"><path d="M126.818 61.35c-7.8-20.4-22.1-30.7-43.5-30.7-14.3 0-26.4 5-35.9 15.3-9.3 10.3-14.1 25.1-14.1 44.5 0 19.3 4.8 34.2 14.1 44.5 9.5 10.3 21.6 15.3 35.9 15.3 21.4 0 35.7-10.3 43.5-30.7l29.4 7.5c-8.3 33.9-34.7 53.3-72.9 53.3-23.4 0-43-8-59-23.9-16.1-15.7-24.1-37.8-24.1-66 0-28.2 8-50.3 24.1-66.1 16.1-15.8 35.7-23.8 59.1-23.8 38.2 0 64.6 19.3 72.9 53.3l-29.5 7.5zm128.9-12.1c-6.3-12.3-14.6-18.6-24.4-18.6-9.8 0-16.8 6.8-16.8 16.1 0 11.1 12.1 19.3 26.4 26.1 21.1 9.3 49 22.4 48.7 52.8 0 34.2-22.1 54.8-56.3 54.8-15.3 0-28.6-4.8-39.7-14.1-11.1-9.5-18.1-21.4-20.9-35.2l26.4-16.6c6.8 23.9 18.3 35.7 34.9 35.7 15.3 0 22.9-7.5 22.9-22.9 0-10.3-11.3-18.3-26.1-24.6-20.9-8.8-48-22.1-47.5-54.5 0-13.3 4.5-24.6 13.6-33.9 9.3-9.3 20.6-13.8 34.4-13.8 23.9 0 40.7 10.6 50.8 31.9l-26.4 16.8zm134.9 0c-6.3-12.3-14.6-18.6-24.4-18.6-9.8 0-16.8 6.8-16.8 16.1 0 11.1 12.1 19.3 26.4 26.1 21.1 9.3 49 22.4 48.7 52.8 0 34.2-22.1 54.8-56.3 54.8-15.3 0-28.6-4.8-39.7-14.1-11.1-9.5-18.1-21.4-20.9-35.2l26.4-16.6c6.8 23.9 18.3 35.7 34.9 35.7 15.3 0 22.9-7.5 22.9-22.9 0-10.3-11.3-18.3-26.1-24.6-20.9-8.8-48-22.1-47.5-54.5 0-13.3 4.5-24.6 13.6-33.9 9.3-9.3 20.6-13.8 34.4-13.8 23.9 0 40.7 10.6 50.8 31.9l-26.4 16.8zm-334.9 310c-2.9 10.1-10.7 16.2-21.3 16.2-6.9 0-12.7-2.5-17.7-7.5-4.8-5-7.3-12.1-7.3-21.4 0-9.5 3-17.3 7.8-21.8 4.7-4.6 10.8-7.1 17.2-7.1 10.7 0 18.5 6.1 21.3 16.2l-5.2 1.6c-2.2-8.2-7.7-12.7-16.1-12.7-5.8 0-10.5 2.1-14 6.3-3.6 4.2-5.3 10.1-5.3 17.6 0 7.5 1.8 13.4 5.3 17.6 3.5 4.2 8.3 6.3 14 6.3 8.4 0 13.9-4.6 16.1-12.7l5.2 1.4zm7.8-4.8c0-5.5 1.8-10.5 5.2-14.7 3.5-4.2 8.1-6.3 13.8-6.3 5.7 0 10.4 2.1 13.8 6.3 3.5 4.2 5.2 9.2 5.2 14.7s-1.8 10.5-5.2 14.7c-3.4 4.2-8.1 6.3-13.8 6.3-5.7 0-10.4-2.1-13.8-6.3-3.4-4.2-5.2-9.1-5.2-14.7zm5.3 0c0 4.4 1.2 8.3 3.7 11.5 2.5 3.3 5.9 4.8 10.2 4.8 4.2 0 7.7-1.6 10.1-4.8 2.5-3.3 3.8-7 3.8-11.5 0-4.4-1.2-8.3-3.8-11.5-2.5-3.3-5.8-4.8-10.1-4.8-4.2 0-7.7 1.6-10.2 4.8-2.5 3.3-3.7 7-3.7 11.5zm76 20.4h-5v-27.3c0-6.2-2.8-9.4-8.3-9.4-3.8 0-6.9 1.7-9.5 5.1-2.5 3.5-3.8 8-3.8 13.6v17.9h-4.9v-40.8h5v8.5c2.9-5.5 8.2-9.2 14-9.2 7.8 0 12.5 4.9 12.5 13.4v28.2zm8.8-36v-4.6h6.4v-2.7c0-9.3 4.2-13.9 12.6-13.9 2 0 3.6.3 4.8 1.1l-1.1 4.6c-1.4-.7-2.9-1-4.2-1-4.7 0-7.2 2.9-7.2 8.4v3.4h9.9v4.6h-9.9v36h-5v-36l-6.3.1zm63.2 15.6h-30.7c0 9.7 4.8 16.3 12.8 16.3 6.1 0 9.6-2.5 12.5-8.7l4.4 2.2c-4.1 8.1-9.2 11.3-17 11.3-5.4 0-9.8-2-13.1-5.9-3.4-3.9-5-9.1-5-15.1s1.7-11.1 5-15c3.4-3.9 7.7-6 13.1-6 5.2 0 9.6 1.7 12.8 5.1 3.4 3.5 5 8 5 13.6v2.2h.2zm-30.4-4.7h25.2c-1-7.2-5.5-11.7-12.7-11.7-6.5.1-11.1 4.8-12.5 11.7zm63.6-10.1c-1.8-1-3.8-1.5-5.7-1.5-6.5 0-11.3 7.6-11.3 20.9v15.8h-5v-40.8h5v7.3c2.5-5.2 6.5-7.9 11.9-7.9 1.9 0 3.9.5 6.1 1.4l-1 4.8zm42.2 14.8h-30.7c0 9.7 4.8 16.3 12.8 16.3 6.1 0 9.6-2.5 12.5-8.7l4.4 2.2c-4.1 8.1-9.2 11.3-17 11.3-5.4 0-9.8-2-13.1-5.9-3.4-3.9-5-9.1-5-15.1s1.7-11.1 5-15c3.3-3.9 7.7-6 13.1-6 5.2 0 9.6 1.7 12.8 5.1 3.4 3.5 5 8 5 13.6v2.2h.2zm-30.4-4.7h25.2c-1-7.2-5.5-11.7-12.7-11.7-6.5.1-11.2 4.8-12.5 11.7zm73 25.1h-5v-27.3c0-6.2-2.8-9.4-8.3-9.4-3.8 0-6.9 1.7-9.5 5.1-2.5 3.5-3.8 8-3.8 13.6v17.9h-5v-40.8h5v8.5c2.9-5.5 8.2-9.2 14-9.2 7.8 0 12.5 4.9 12.5 13.4l.1 28.2zm45.6-10.7c-2.9 7.5-8.3 11.3-16.4 11.3-5.6 0-10.1-2-13.2-6.1-3.2-4.1-4.7-9.2-4.7-14.9 0-5.7 1.6-10.7 4.7-14.8 3.2-4.1 7.6-6.2 13.2-6.2 8.1 0 13.6 3.8 16.4 11.3l-4.5 1.8c-2.3-5.5-6.2-8.3-11.8-8.3-4.1 0-7.4 1.6-9.6 4.6-2.2 3.1-3.3 6.9-3.3 11.7 0 4.7 1.1 8.6 3.3 11.8 2.2 3.1 5.4 4.6 9.6 4.6 5.6 0 9.6-2.8 11.8-8.3l4.5 1.5zm43.8-9.7h-30.7c0 9.7 4.8 16.3 12.8 16.3 6.1 0 9.6-2.5 12.5-8.7l4.4 2.2c-4.1 8.1-9.2 11.3-17 11.3-5.4 0-9.8-2-13.1-5.9-3.4-3.9-5-9.1-5-15.1s1.7-11.1 5-15c3.4-3.9 7.7-6 13.1-6 5.2 0 9.6 1.7 12.8 5.1 3.4 3.5 5 8 5 13.6v2.2h.2zm-30.4-4.7h25.2c-1-7.2-5.5-11.7-12.7-11.7-6.5.1-11.1 4.8-12.5 11.7zm-379.7-160.4h16.3v88.2h44.7v15.4h-61v-103.6zm70.2 66.3c0-10.8 3.3-20 9.9-27.4 6.7-7.4 15.7-11.1 26.8-11.1 11.1 0 20 3.7 26.7 11.1 6.7 7.4 10.1 16.6 10.1 27.4 0 10.8-3.4 20-10.1 27.4-6.7 7.4-15.5 11.1-26.7 11.1-11.1 0-20.1-3.7-26.8-11.1-6.6-7.4-9.9-16.6-9.9-27.4zm16.3 0c0 6.8 1.8 12.7 5.3 17.6 3.7 4.9 8.7 7.3 15.1 7.3s11.4-2.4 15-7.3c3.7-4.9 5.5-10.8 5.5-17.6 0-6.8-1.8-12.6-5.5-17.5-3.6-4.9-8.6-7.4-15-7.4s-11.4 2.5-15.1 7.4c-3.5 4.9-5.3 10.7-5.3 17.5zm64-37.3h15.7l16.3 53.6 16.3-53.6h15.7l-24.7 74.6h-14.5l-24.8-74.6zm138.9 41.6h-52.9c0 11.7 6.8 20.6 18.5 20.6 8.3 0 15.8-4.7 19.5-12.6l13.2 5.2c-7.6 14.7-16.3 21-32.7 21-24.6 0-34.8-20.7-34.8-38.5s10.2-38.5 34.8-38.5c23.8 0 34.4 19.4 34.4 36.1v6.7zm-52.6-12.9h36.3c-1.3-9.3-7.6-16.3-18.1-16.3-9.9.1-16.4 6.7-18.2 16.3zm83.8 46h-15.4v-74.6h15.4v12.4c4.9-8.7 13.8-13.6 22.1-13.6 3.4 0 6.5.6 9.5 1.8l-2.7 14.1c-2.4-1.5-5.3-2.2-8.7-2.2-5.5 0-10.2 3-14.2 9-4 5.9-5.9 14.4-5.9 25.5v27.6h-.1zm85.5-64-9.8 8.6c-3.6-4.6-7.8-6.8-13-6.8-4.1 0-7.4 2.7-7.4 7.4 0 1.6.6 3.3 1.9 4.6 2.5 2.5 5 3.7 11.4 6.1 5.2 1.9 7.4 2.7 11.6 5.5 5.9 3.6 8.7 8 9.3 16.1 0 6.7-2.4 12.3-7.1 16.9-4.7 4.6-11 6.8-18.8 6.8-14.2 0-24.3-9.2-28.9-20l13-7.1c4 9 9.5 13.5 16.4 13.5 6.7 0 10.1-3.3 10.1-9.8 0-2.5-1-4.3-3.9-5.9-1.3-.9-2.7-1.6-3.9-2.1-2.2-1-7.7-3-10.1-4-10.7-4.4-16-11.3-16-20.4 0-5.9 2.2-11 6.5-15 4.3-4.1 9.8-6.2 16.4-6.2 9.3-.1 17.5 4.5 22.3 11.8z"/></g><defs><clipPath id="a"><path fill="#fff" transform="translate(.218 .55)" d="M0 0h424.3v374.9H0z"/></clipPath></defs></svg>
